packages/icons/src/lib/svgs/off.svg

<svg
        aria-hidden="true"
        data-testid="test-icon"
        fill="none"
        
        viewBox="0 0 24 24"
        
        xmlns="http://www.w3.org/2000/svg"
        
    >
        <title>off icon</title>
        <path
            d="M11.6154 12H12.3846C12.6923 12 13 11.5833 13 11.1667V10.5417V5.54167V5.02083V3.45833V2.9375V2.83333C12.9231 2.41667 12.6923 2 12.3846 2H11.6154C11.2308 2 11 2.41667 11 2.83333V2.9375V3.45833V5.02083V5.54167V10.4375V11.0625C11 11.5833 11.2308 12 11.6154 12Z"
            fill="currentColor"
        />
        <path
            d="M9 3.51212C5.50442 4.74762 3 8.08134 3 12C3 16.9706 7.02944 21 12 21C16.9706 21 21 16.9706 21 12C21 8.08134 18.4956 4.74762 15 3.51212V5.67363C17.3649 6.79709 19 9.2076 19 12C19 15.866 15.866 19 12 19C8.13401 19 5 15.866 5 12C5 9.2076 6.63505 6.79709 9 5.67363V3.51212Z"
            fill="currentColor"
        />
    </svg>

<svg aria-hidden="true" data-testid="test-icon" fill="currentColor" viewBox="0 0 24 24" xmlns="http://www.w3.org/2000/svg"><path d="M11.615 12h.77c.307 0 .615-.417.615-.833V2.833c-.077-.416-.308-.833-.615-.833h-.77c-.384 0-.615.417-.615.833V11.063c0 .52.23.937.615.937z"/><path d="M9 3.512A9 9 0 1021 12a9.004 9.004 0 00-6-8.488v2.162a7 7 0 11-6 0V3.512z"/></svg>
